X: 36862
T: Ships In Full Sail, The
R: jig
M: 6/8
K: Amajor
|:"A"EFA cBA|"E"{c}BAB "A"cea|"D"faf "F#"{a}fec|"B"BcB "E"{c}BAF|
"A"EFA cBA|"E"{c}BAB "A"cea|"D"faf {a}fec|"E"BAF "A"A3:|
|:"F#"~aga fed|cde "E"ece|"A"EFA "B"~BAB|"E"cBB Bce|
"F#"~aga fed|cde "E"ece|"A"EFA "E"~BAB|1 cAA "A"A2 e:|2 cAA "A"A (3Bcd||
|:"A"ece aec|"A"ecA "E"cAE|"A"~AGA "B"BAB|"E"cBB Bcd|
"A"ece aec|"A"ecA "E"cAE|"D"~AGA "E"BAB|1 cAA "A"A (3Bcd:|2 cAA "A"A2 e||

